images/5459665.svg

<?xml version="1.0" encoding="UTF-8"?>
<svg xmlns="http://www.w3.org/2000/svg" xmlns:xlink="http://www.w3.org/1999/xlink" width="300pt" height="300pt" viewBox="0 0 300 300" version="1.1">
<defs>
<g>
<symbol overflow="visible" id="glyph0-0">
<path style="stroke:none;" d="M 0.453125 1.59375 L 0.453125 -6.34375 L 4.953125 -6.34375 L 4.953125 1.59375 Z M 0.953125 1.09375 L 4.453125 1.09375 L 4.453125 -5.84375 L 0.953125 -5.84375 Z M 0.953125 1.09375 "/>
</symbol>
<symbol overflow="visible" id="glyph0-1">
<path style="stroke:none;" d="M 0.890625 -6.5625 L 2.078125 -6.5625 L 4.984375 -1.078125 L 4.984375 -6.5625 L 5.84375 -6.5625 L 5.84375 0 L 4.65625 0 L 1.75 -5.484375 L 1.75 0 L 0.890625 0 Z M 0.890625 -6.5625 "/>
</symbol>
<symbol overflow="visible" id="glyph0-2">
<path style="stroke:none;" d="M 3.546875 -5.953125 C 2.898438 -5.953125 2.382812 -5.710938 2 -5.234375 C 1.625 -4.753906 1.4375 -4.101562 1.4375 -3.28125 C 1.4375 -2.445312 1.625 -1.789062 2 -1.3125 C 2.382812 -0.832031 2.898438 -0.59375 3.546875 -0.59375 C 4.191406 -0.59375 4.703125 -0.832031 5.078125 -1.3125 C 5.453125 -1.789062 5.640625 -2.445312 5.640625 -3.28125 C 5.640625 -4.101562 5.453125 -4.753906 5.078125 -5.234375 C 4.703125 -5.710938 4.191406 -5.953125 3.546875 -5.953125 Z M 3.546875 -6.6875 C 4.460938 -6.6875 5.195312 -6.375 5.75 -5.75 C 6.300781 -5.132812 6.578125 -4.3125 6.578125 -3.28125 C 6.578125 -2.238281 6.300781 -1.410156 5.75 -0.796875 C 5.195312 -0.179688 4.460938 0.125 3.546875 0.125 C 2.617188 0.125 1.878906 -0.179688 1.328125 -0.796875 C 0.773438 -1.410156 0.5 -2.238281 0.5 -3.28125 C 0.5 -4.3125 0.773438 -5.132812 1.328125 -5.75 C 1.878906 -6.375 2.617188 -6.6875 3.546875 -6.6875 Z M 3.546875 -6.6875 "/>
</symbol>
<symbol overflow="visible" id="glyph0-3">
<path style="stroke:none;" d="M 0.890625 -6.5625 L 1.765625 -6.5625 L 1.765625 -3.875 L 5 -3.875 L 5 -6.5625 L 5.890625 -6.5625 L 5.890625 0 L 5 0 L 5 -3.125 L 1.765625 -3.125 L 1.765625 0 L 0.890625 0 Z M 0.890625 -6.5625 "/>
</symbol>
</g>
</defs>
<g id="surface31425">
<rect x="0" y="0" width="300" height="300" style="fill:rgb(100%,100%,100%);fill-opacity:1;stroke:none;"/>
<path style="fill:none;stroke-width:1.2;stroke-linecap:butt;stroke-linejoin:miter;stroke:rgb(0%,0%,0%);stroke-opacity:1;stroke-miterlimit:10;" d="M 131.335938 74.84375 L 113.25 89.820312 "/>
<path style="fill:none;stroke-width:1.2;stroke-linecap:butt;stroke-linejoin:miter;stroke:rgb(0%,0%,0%);stroke-opacity:1;stroke-miterlimit:10;" d="M 113.25 89.820312 L 91.234375 81.644531 "/>
<path style="fill:none;stroke-width:1.2;stroke-linecap:butt;stroke-linejoin:miter;stroke:rgb(0%,0%,0%);stroke-opacity:1;stroke-miterlimit:10;" d="M 113.25 89.820312 L 117.175781 112.972656 "/>
<path style="fill:none;stroke-width:1.2;stroke-linecap:butt;stroke-linejoin:miter;stroke:rgb(0%,0%,0%);stroke-opacity:1;stroke-miterlimit:10;" d="M 117.175781 112.972656 L 99.089844 127.949219 "/>
<path style="fill:none;stroke-width:1.2;stroke-linecap:butt;stroke-linejoin:miter;stroke:rgb(0%,0%,0%);stroke-opacity:1;stroke-miterlimit:10;" d="M 99.089844 127.949219 L 86.085938 108.394531 "/>
<path style="fill:none;stroke-width:1.2;stroke-linecap:butt;stroke-linejoin:miter;stroke:rgb(0%,0%,0%);stroke-opacity:1;stroke-miterlimit:10;" d="M 99.089844 127.949219 L 115.875 144.371094 "/>
<path style="fill:none;stroke-width:1.2;stroke-linecap:butt;stroke-linejoin:miter;stroke:rgb(0%,0%,100%);stroke-opacity:1;stroke-miterlimit:10;" d="M 84.515625 146.359375 L 91.800781 137.152344 "/>
<path style="fill:none;stroke-width:1.2;stroke-linecap:butt;stroke-linejoin:miter;stroke:rgb(0%,0%,0%);stroke-opacity:1;stroke-miterlimit:10;" d="M 91.800781 137.152344 L 99.089844 127.949219 "/>
<path style="fill:none;stroke-width:1.2;stroke-linecap:butt;stroke-linejoin:miter;stroke:rgb(0%,0%,0%);stroke-opacity:1;stroke-miterlimit:10;" d="M 86.085938 108.394531 L 63.472656 114.722656 "/>
<path style="fill:none;stroke-width:1.2;stroke-linecap:butt;stroke-linejoin:miter;stroke:rgb(0%,0%,0%);stroke-opacity:1;stroke-miterlimit:10;" d="M 85.3125 114.347656 L 67.222656 119.410156 "/>
<path style="fill:none;stroke-width:1.2;stroke-linecap:butt;stroke-linejoin:miter;stroke:rgb(0%,0%,0%);stroke-opacity:1;stroke-miterlimit:10;" d="M 63.472656 114.722656 L 62.5 138.183594 "/>
<path style="fill:none;stroke-width:1.2;stroke-linecap:butt;stroke-linejoin:miter;stroke:rgb(0%,0%,0%);stroke-opacity:1;stroke-miterlimit:10;" d="M 62.5 138.183594 L 73.507812 142.269531 "/>
<path style="fill:none;stroke-width:1.2;stroke-linecap:butt;stroke-linejoin:miter;stroke:rgb(0%,0%,100%);stroke-opacity:1;stroke-miterlimit:10;" d="M 73.507812 142.269531 L 84.515625 146.359375 "/>
<path style="fill:none;stroke-width:1.2;stroke-linecap:butt;stroke-linejoin:miter;stroke:rgb(0%,0%,100%);stroke-opacity:1;stroke-miterlimit:10;" d="M 84.515625 146.359375 L 87.675781 157.664062 "/>
<path style="fill:none;stroke-width:1.2;stroke-linecap:butt;stroke-linejoin:miter;stroke:rgb(0%,0%,0%);stroke-opacity:1;stroke-miterlimit:10;" d="M 87.675781 157.664062 L 90.839844 168.972656 "/>
<path style=" stroke:none;fill-rule:nonzero;fill:rgb(100%,100%,100%);fill-opacity:1;" d="M 81.515625 140.859375 L 88.515625 140.859375 L 88.515625 151.859375 L 81.515625 151.859375 Z M 81.515625 140.859375 "/>
<g style="fill:rgb(0%,0%,100%);fill-opacity:1;">
  <use xlink:href="#glyph0-1" x="81.515625" y="149.522461"/>
</g>
<path style="fill:none;stroke-width:1.2;stroke-linecap:butt;stroke-linejoin:miter;stroke:rgb(0%,0%,0%);stroke-opacity:1;stroke-miterlimit:10;" d="M 89.832031 171.542969 L 97.804688 174.664062 "/>
<path style="fill:none;stroke-width:1.2;stroke-linecap:butt;stroke-linejoin:miter;stroke:rgb(100%,0%,0%);stroke-opacity:1;stroke-miterlimit:10;" d="M 97.804688 174.664062 L 105.773438 177.785156 "/>
<path style="fill:none;stroke-width:1.2;stroke-linecap:butt;stroke-linejoin:miter;stroke:rgb(0%,0%,0%);stroke-opacity:1;stroke-miterlimit:10;" d="M 91.847656 166.398438 L 99.816406 169.519531 "/>
<path style="fill:none;stroke-width:1.2;stroke-linecap:butt;stroke-linejoin:miter;stroke:rgb(100%,0%,0%);stroke-opacity:1;stroke-miterlimit:10;" d="M 99.816406 169.519531 L 107.789062 172.636719 "/>
<path style="fill:none;stroke-width:1.2;stroke-linecap:butt;stroke-linejoin:miter;stroke:rgb(0%,0%,0%);stroke-opacity:1;stroke-miterlimit:10;" d="M 90.839844 168.972656 L 74.417969 185.757812 "/>
<path style=" stroke:none;fill-rule:nonzero;fill:rgb(100%,100%,100%);fill-opacity:1;" d="M 102.78125 169.710938 L 110.78125 169.710938 L 110.78125 180.710938 L 102.78125 180.710938 Z M 102.78125 169.710938 "/>
<g style="fill:rgb(100%,0%,0%);fill-opacity:1;">
  <use xlink:href="#glyph0-2" x="102.78125" y="178.374023"/>
</g>
<path style="fill:none;stroke-width:1.2;stroke-linecap:butt;stroke-linejoin:miter;stroke:rgb(0%,0%,0%);stroke-opacity:1;stroke-miterlimit:10;" d="M 74.417969 185.757812 L 51.671875 179.929688 "/>
<path style="fill:none;stroke-width:1.2;stroke-linecap:butt;stroke-linejoin:miter;stroke:rgb(0%,0%,0%);stroke-opacity:1;stroke-miterlimit:10;" d="M 70.773438 190.527344 L 52.574219 185.863281 "/>
<path style="fill:none;stroke-width:1.2;stroke-linecap:butt;stroke-linejoin:miter;stroke:rgb(0%,0%,0%);stroke-opacity:1;stroke-miterlimit:10;" d="M 80.746094 208.371094 L 74.417969 185.757812 "/>
<path style="fill:none;stroke-width:1.2;stroke-linecap:butt;stroke-linejoin:miter;stroke:rgb(0%,0%,0%);stroke-opacity:1;stroke-miterlimit:10;" d="M 51.671875 179.929688 L 35.25 196.714844 "/>
<path style="fill:none;stroke-width:1.2;stroke-linecap:butt;stroke-linejoin:miter;stroke:rgb(0%,0%,0%);stroke-opacity:1;stroke-miterlimit:10;" d="M 35.25 196.714844 L 41.574219 219.328125 "/>
<path style="fill:none;stroke-width:1.2;stroke-linecap:butt;stroke-linejoin:miter;stroke:rgb(0%,0%,0%);stroke-opacity:1;stroke-miterlimit:10;" d="M 41.203125 197.488281 L 46.265625 215.578125 "/>
<path style="fill:none;stroke-width:1.2;stroke-linecap:butt;stroke-linejoin:miter;stroke:rgb(0%,0%,0%);stroke-opacity:1;stroke-miterlimit:10;" d="M 41.574219 219.328125 L 64.324219 225.15625 "/>
<path style="fill:none;stroke-width:1.2;stroke-linecap:butt;stroke-linejoin:miter;stroke:rgb(0%,0%,0%);stroke-opacity:1;stroke-miterlimit:10;" d="M 64.324219 225.15625 L 80.746094 208.371094 "/>
<path style="fill:none;stroke-width:1.2;stroke-linecap:butt;stroke-linejoin:miter;stroke:rgb(0%,0%,0%);stroke-opacity:1;stroke-miterlimit:10;" d="M 62.015625 219.613281 L 75.152344 206.1875 "/>
<path style="fill:none;stroke-width:1.2;stroke-linecap:butt;stroke-linejoin:miter;stroke:rgb(0%,0%,0%);stroke-opacity:1;stroke-miterlimit:10;" d="M 113.136719 144.015625 L 112.039062 152.503906 "/>
<path style="fill:none;stroke-width:1.2;stroke-linecap:butt;stroke-linejoin:miter;stroke:rgb(100%,0%,0%);stroke-opacity:1;stroke-miterlimit:10;" d="M 112.039062 152.503906 L 110.941406 160.992188 "/>
<path style="fill:none;stroke-width:1.2;stroke-linecap:butt;stroke-linejoin:miter;stroke:rgb(0%,0%,0%);stroke-opacity:1;stroke-miterlimit:10;" d="M 118.617188 144.722656 L 117.519531 153.210938 "/>
<path style="fill:none;stroke-width:1.2;stroke-linecap:butt;stroke-linejoin:miter;stroke:rgb(100%,0%,0%);stroke-opacity:1;stroke-miterlimit:10;" d="M 117.519531 153.210938 L 116.421875 161.699219 "/>
<path style="fill:none;stroke-width:1.2;stroke-linecap:butt;stroke-linejoin:miter;stroke:rgb(0%,0%,0%);stroke-opacity:1;stroke-miterlimit:10;" d="M 115.875 144.371094 L 127.183594 141.207031 "/>
<path style="fill:none;stroke-width:1.2;stroke-linecap:butt;stroke-linejoin:miter;stroke:rgb(0%,0%,100%);stroke-opacity:1;stroke-miterlimit:10;" d="M 127.183594 141.207031 L 138.492188 138.042969 "/>
<path style=" stroke:none;fill-rule:nonzero;fill:rgb(100%,100%,100%);fill-opacity:1;" d="M 109.679688 155.847656 L 117.679688 155.847656 L 117.679688 166.847656 L 109.679688 166.847656 Z M 109.679688 155.847656 "/>
<g style="fill:rgb(100%,0%,0%);fill-opacity:1;">
  <use xlink:href="#glyph0-2" x="109.679688" y="164.510742"/>
</g>
<path style="fill:none;stroke-width:1.2;stroke-linecap:butt;stroke-linejoin:miter;stroke:rgb(0%,0%,100%);stroke-opacity:1;stroke-miterlimit:10;" d="M 138.492188 138.042969 L 146.882812 146.253906 "/>
<path style="fill:none;stroke-width:1.2;stroke-linecap:butt;stroke-linejoin:miter;stroke:rgb(0%,0%,0%);stroke-opacity:1;stroke-miterlimit:10;" d="M 146.882812 146.253906 L 155.277344 154.464844 "/>
<path style=" stroke:none;fill-rule:nonzero;fill:rgb(100%,100%,100%);fill-opacity:1;" d="M 131.492188 132.542969 L 145.492188 132.542969 L 145.492188 143.542969 L 131.492188 143.542969 Z M 131.492188 132.542969 "/>
<g style="fill:rgb(0%,0%,100%);fill-opacity:1;">
  <use xlink:href="#glyph0-1" x="131.492188" y="141.206055"/>
  <use xlink:href="#glyph0-3" x="138.469727" y="141.206055"/>
</g>
<path style="fill:none;stroke-width:1.2;stroke-linecap:butt;stroke-linejoin:miter;stroke:rgb(0%,0%,0%);stroke-opacity:1;stroke-miterlimit:10;" d="M 155.277344 154.464844 L 177.890625 148.140625 "/>
<path style="fill:none;stroke-width:1.2;stroke-linecap:butt;stroke-linejoin:miter;stroke:rgb(0%,0%,0%);stroke-opacity:1;stroke-miterlimit:10;" d="M 177.890625 148.140625 L 194.675781 164.5625 "/>
<path style="fill:none;stroke-width:1.2;stroke-linecap:butt;stroke-linejoin:miter;stroke:rgb(0%,0%,0%);stroke-opacity:1;stroke-miterlimit:10;" d="M 194.675781 164.5625 L 191.253906 187.792969 "/>
<path style="fill:none;stroke-width:1.2;stroke-linecap:butt;stroke-linejoin:miter;stroke:rgb(0%,0%,0%);stroke-opacity:1;stroke-miterlimit:10;" d="M 199.800781 167.6875 L 197.0625 186.273438 "/>
<path style="fill:none;stroke-width:1.2;stroke-linecap:butt;stroke-linejoin:miter;stroke:rgb(0%,0%,0%);stroke-opacity:1;stroke-miterlimit:10;" d="M 217.824219 160.632812 L 194.675781 164.5625 "/>
<path style="fill:none;stroke-width:1.2;stroke-linecap:butt;stroke-linejoin:miter;stroke:rgb(0%,0%,0%);stroke-opacity:1;stroke-miterlimit:10;" d="M 191.253906 187.792969 L 201.773438 193.007812 "/>
<path style="fill:none;stroke-width:1.2;stroke-linecap:butt;stroke-linejoin:miter;stroke:rgb(0%,0%,100%);stroke-opacity:1;stroke-miterlimit:10;" d="M 201.773438 193.007812 L 212.292969 198.222656 "/>
<path style="fill:none;stroke-width:1.2;stroke-linecap:butt;stroke-linejoin:miter;stroke:rgb(0%,0%,100%);stroke-opacity:1;stroke-miterlimit:10;" d="M 212.292969 198.222656 L 220.503906 189.832031 "/>
<path style="fill:none;stroke-width:1.2;stroke-linecap:butt;stroke-linejoin:miter;stroke:rgb(0%,0%,0%);stroke-opacity:1;stroke-miterlimit:10;" d="M 220.503906 189.832031 L 228.714844 181.4375 "/>
<path style=" stroke:none;fill-rule:nonzero;fill:rgb(100%,100%,100%);fill-opacity:1;" d="M 205.292969 192.722656 L 219.292969 192.722656 L 219.292969 203.722656 L 205.292969 203.722656 Z M 205.292969 192.722656 "/>
<g style="fill:rgb(0%,0%,100%);fill-opacity:1;">
  <use xlink:href="#glyph0-1" x="205.292969" y="201.385742"/>
  <use xlink:href="#glyph0-3" x="212.270508" y="201.385742"/>
</g>
<path style="fill:none;stroke-width:1.2;stroke-linecap:butt;stroke-linejoin:miter;stroke:rgb(0%,0%,0%);stroke-opacity:1;stroke-miterlimit:10;" d="M 228.714844 181.4375 L 252.175781 182.410156 "/>
<path style="fill:none;stroke-width:1.2;stroke-linecap:butt;stroke-linejoin:miter;stroke:rgb(0%,0%,0%);stroke-opacity:1;stroke-miterlimit:10;" d="M 231.289062 176.015625 L 250.058594 176.792969 "/>
<path style="fill:none;stroke-width:1.2;stroke-linecap:butt;stroke-linejoin:miter;stroke:rgb(0%,0%,0%);stroke-opacity:1;stroke-miterlimit:10;" d="M 217.824219 160.632812 L 228.714844 181.4375 "/>
<path style="fill:none;stroke-width:1.2;stroke-linecap:butt;stroke-linejoin:miter;stroke:rgb(0%,0%,0%);stroke-opacity:1;stroke-miterlimit:10;" d="M 252.175781 182.410156 L 264.75 162.578125 "/>
<path style="fill:none;stroke-width:1.2;stroke-linecap:butt;stroke-linejoin:miter;stroke:rgb(0%,0%,0%);stroke-opacity:1;stroke-miterlimit:10;" d="M 264.75 162.578125 L 253.859375 141.773438 "/>
<path style="fill:none;stroke-width:1.2;stroke-linecap:butt;stroke-linejoin:miter;stroke:rgb(0%,0%,0%);stroke-opacity:1;stroke-miterlimit:10;" d="M 258.765625 163.058594 L 250.054688 146.414062 "/>
<path style="fill:none;stroke-width:1.2;stroke-linecap:butt;stroke-linejoin:miter;stroke:rgb(0%,0%,0%);stroke-opacity:1;stroke-miterlimit:10;" d="M 253.859375 141.773438 L 230.398438 140.800781 "/>
<path style="fill:none;stroke-width:1.2;stroke-linecap:butt;stroke-linejoin:miter;stroke:rgb(0%,0%,0%);stroke-opacity:1;stroke-miterlimit:10;" d="M 230.398438 140.800781 L 217.824219 160.632812 "/>
<path style="fill:none;stroke-width:1.2;stroke-linecap:butt;stroke-linejoin:miter;stroke:rgb(0%,0%,0%);stroke-opacity:1;stroke-miterlimit:10;" d="M 233.808594 145.742188 L 223.75 161.609375 "/>
</g>
</svg>

<svg xmlns="http://www.w3.org/2000/svg" xmlns:xlink="http://www.w3.org/1999/xlink" width="300pt" height="300pt" viewBox="0 0 300 300"><defs><symbol overflow="visible"><path d="M.453 1.594v-7.938h4.5v7.938zm.5-.5h3.5v-6.938h-3.5zm0 0"/></symbol><symbol overflow="visible" id="a"><path d="M.89-6.563H2.08l2.906 5.485v-5.484h.86V0H4.656L1.75-5.484V0H.89zm0 0"/></symbol><symbol overflow="visible" id="b"><path d="M3.547-5.953c-.65 0-1.164.242-1.547.72-.375.48-.563 1.13-.563 1.952 0 .835.188 1.49.563 1.967.383.48.898.72 1.547.72.644 0 1.156-.24 1.53-.72.376-.476.564-1.132.564-1.968 0-.822-.187-1.474-.562-1.954-.375-.477-.887-.72-1.53-.72zm0-.734c.914 0 1.648.312 2.203.937.55.617.828 1.438.828 2.47 0 1.042-.277 1.87-.828 2.483-.555.617-1.29.922-2.203.922-.93 0-1.668-.305-2.22-.922C.774-1.41.5-2.237.5-3.28c0-1.033.273-1.853.828-2.47.55-.625 1.29-.938 2.22-.938zm0 0"/></symbol><symbol overflow="visible" id="c"><path d="M.89-6.563h.876v2.688H5v-2.688h.89V0H5v-3.125H1.766V0H.89zm0 0"/></symbol></defs><g><path fill="#fff" d="M0 0h300v300H0z"/><path d="M131.336 74.844L113.25 89.82M113.25 89.82l-22.016-8.175M113.25 89.82l3.926 23.153M117.176 112.973L99.09 127.95M99.09 127.95l-13.004-19.555M99.09 127.95l16.785 16.42" stroke-width="1.2" stroke="#000" stroke-miterlimit="10" fill="none"/><path d="M84.516 146.36l7.285-9.208" stroke-width="1.2" stroke="#00f" stroke-miterlimit="10" fill="none"/><path d="M91.8 137.152l7.29-9.203M86.086 108.395l-22.613 6.328M85.313 114.348l-18.09 5.062M63.473 114.723l-.973 23.46M62.5 138.184l11.008 4.086" stroke-width="1.2" stroke="#000" stroke-miterlimit="10" fill="none"/><path d="M73.508 142.27l11.008 4.09M84.516 146.36l3.16 11.304" stroke-width="1.2" stroke="#00f" stroke-miterlimit="10" fill="none"/><path d="M87.676 157.664l3.164 11.31" stroke-width="1.2" stroke="#000" stroke-miterlimit="10" fill="none"/><path d="M81.516 140.86h7v11h-7zm0 0" fill="#fff"/><use xlink:href="#a" x="81.516" y="149.522" fill="#00f"/><path d="M89.832 171.543l7.973 3.12" stroke-width="1.2" stroke="#000" stroke-miterlimit="10" fill="none"/><path d="M97.805 174.664l7.968 3.12" stroke-width="1.2" stroke="#f00" stroke-miterlimit="10" fill="none"/><path d="M91.848 166.398l7.968 3.122" stroke-width="1.2" stroke="#000" stroke-miterlimit="10" fill="none"/><path d="M99.816 169.52l7.973 3.117" stroke-width="1.2" stroke="#f00" stroke-miterlimit="10" fill="none"/><path d="M90.84 168.973l-16.422 16.785" stroke-width="1.2" stroke="#000" stroke-miterlimit="10" fill="none"/><path d="M102.78 169.71h8v11h-8zm0 0" fill="#fff"/><use xlink:href="#b" x="102.781" y="178.374" fill="#f00"/><path d="M74.418 185.758l-22.746-5.828M70.773 190.527l-18.2-4.664M80.746 208.37l-6.328-22.612M51.672 179.93L35.25 196.715M35.25 196.715l6.324 22.613M41.203 197.488l5.063 18.09M41.574 219.328l22.75 5.828M64.324 225.156l16.422-16.785M62.016 219.613l13.136-13.425M113.137 144.016l-1.098 8.488" stroke-width="1.2" stroke="#000" stroke-miterlimit="10" fill="none"/><path d="M112.04 152.504l-1.1 8.488" stroke-width="1.2" stroke="#f00" stroke-miterlimit="10" fill="none"/><path d="M118.617 144.723l-1.097 8.488" stroke-width="1.2" stroke="#000" stroke-miterlimit="10" fill="none"/><path d="M117.52 153.21l-1.098 8.49" stroke-width="1.2" stroke="#f00" stroke-miterlimit="10" fill="none"/><path d="M115.875 144.37l11.31-3.163" stroke-width="1.2" stroke="#000" stroke-miterlimit="10" fill="none"/><path d="M127.184 141.207l11.308-3.164" stroke-width="1.2" stroke="#00f" stroke-miterlimit="10" fill="none"/><path d="M109.68 155.848h8v11h-8zm0 0" fill="#fff"/><use xlink:href="#b" x="109.68" y="164.511" fill="#f00"/><path d="M138.492 138.043l8.39 8.21" stroke-width="1.2" stroke="#00f" stroke-miterlimit="10" fill="none"/><path d="M146.883 146.254l8.394 8.21" stroke-width="1.2" stroke="#000" stroke-miterlimit="10" fill="none"/><path d="M131.492 132.543h14v11h-14zm0 0" fill="#fff"/><g fill="#00f"><use xlink:href="#a" x="131.492" y="141.206"/><use xlink:href="#c" x="138.47" y="141.206"/></g><path d="M155.277 154.465l22.614-6.324M177.89 148.14l16.786 16.423M194.676 164.563l-3.422 23.23M199.8 167.688l-2.738 18.585M217.824 160.633l-23.148 3.93M191.254 187.793l10.52 5.215" stroke-width="1.2" stroke="#000" stroke-miterlimit="10" fill="none"/><path d="M201.773 193.008l10.52 5.215M212.293 198.223l8.21-8.39" stroke-width="1.2" stroke="#00f" stroke-miterlimit="10" fill="none"/><path d="M220.504 189.832l8.21-8.394" stroke-width="1.2" stroke="#000" stroke-miterlimit="10" fill="none"/><path d="M205.293 192.723h14v11h-14zm0 0" fill="#fff"/><g fill="#00f"><use xlink:href="#a" x="205.293" y="201.386"/><use xlink:href="#c" x="212.271" y="201.386"/></g><path d="M228.715 181.438l23.46.972M231.29 176.016l18.77.777M217.824 160.633l10.89 20.804M252.176 182.41l12.574-19.832M264.75 162.578l-10.89-20.805M258.766 163.06l-8.71-16.646M253.86 141.773l-23.462-.972M230.398 140.8l-12.574 19.833M233.81 145.742l-10.06 15.867" stroke-width="1.2" stroke="#000" stroke-miterlimit="10" fill="none"/></g></svg>
